svg/fluentui-system-icons/ic_fluent_production_checkmark_24_regular.svg

<svg width="24" height="24" viewBox="0 0 24 24" fill="none" xmlns="http://www.w3.org/2000/svg">
<path d="M6.25 3.5C5.2835 3.5 4.5 4.2835 4.5 5.25V7.75C4.5 8.7165 5.2835 9.5 6.25 9.5H8.75C9.7165 9.5 10.5 8.7165 10.5 7.75V5.25C10.5 4.2835 9.7165 3.5 8.75 3.5H6.25ZM13.5 5.25C13.5 4.2835 14.2835 3.5 15.25 3.5H17.75C18.7165 3.5 19.5 4.2835 19.5 5.25V7.75C19.5 8.7165 18.7165 9.5 17.75 9.5H15.25C14.2835 9.5 13.5 8.7165 13.5 7.75V5.25ZM15.25 5C15.1119 5 15 5.11193 15 5.25V7.75C15 7.88807 15.1119 8 15.25 8H17.75C17.8881 8 18 7.88807 18 7.75V5.25C18 5.11193 17.8881 5 17.75 5H15.25ZM7 17.5C7.82843 17.5 8.5 16.8284 8.5 16C8.5 15.1716 7.82843 14.5 7 14.5C6.17157 14.5 5.5 15.1716 5.5 16C5.5 16.8284 6.17157 17.5 7 17.5ZM6.5 13H12.8096C13.4229 12.3609 14.1656 11.8468 14.9956 11.5H6.5C4.01472 11.5 2 13.5147 2 16C2 18.4853 4.01472 20.5 6.5 20.5H11.7322C11.4876 20.0307 11.2986 19.5278 11.1739 19H6.5C4.84315 19 3.5 17.6569 3.5 16C3.5 14.3431 4.84315 13 6.5 13ZM10.5 16C10.5 16.4493 10.6975 16.8525 11.0105 17.1274C11.0633 16.1941 11.3129 15.3135 11.7185 14.5264C11.0247 14.6581 10.5 15.2678 10.5 16ZM23 17.5C23 20.5376 20.5376 23 17.5 23C14.4624 23 12 20.5376 12 17.5C12 14.4624 14.4624 12 17.5 12C20.5376 12 23 14.4624 23 17.5ZM20.8536 15.1464C20.6583 14.9512 20.3417 14.9512 20.1464 15.1464L16.5 18.7929L14.8536 17.1464C14.6583 16.9512 14.3417 16.9512 14.1464 17.1464C13.9512 17.3417 13.9512 17.6583 14.1464 17.8536L16.1464 19.8536C16.3417 20.0488 16.6583 20.0488 16.8536 19.8536L20.8536 15.8536C21.0488 15.6583 21.0488 15.3417 20.8536 15.1464Z" fill="#212121"/>
</svg>

<svg xmlns="http://www.w3.org/2000/svg" width="24" height="24"><path d="M6.25 3.5A1.75 1.75 0 0 0 4.5 5.25v2.5c0 .966.784 1.75 1.75 1.75h2.5a1.75 1.75 0 0 0 1.75-1.75v-2.5A1.75 1.75 0 0 0 8.75 3.5h-2.5Zm7.25 1.75c0-.966.784-1.75 1.75-1.75h2.5c.966 0 1.75.784 1.75 1.75v2.5a1.75 1.75 0 0 1-1.75 1.75h-2.5a1.75 1.75 0 0 1-1.75-1.75v-2.5ZM15.25 5a.25.25 0 0 0-.25.25v2.5c0 .138.112.25.25.25h2.5a.25.25 0 0 0 .25-.25v-2.5a.25.25 0 0 0-.25-.25h-2.5ZM7 17.5a1.5 1.5 0 1 0 0-3 1.5 1.5 0 0 0 0 3ZM6.5 13h6.31a6.511 6.511 0 0 1 2.186-1.5H6.5a4.5 4.5 0 1 0 0 9h5.232a6.456 6.456 0 0 1-.558-1.5H6.5a3 3 0 1 1 0-6Zm4 3c0 .45.197.852.51 1.127a6.464 6.464 0 0 1 .709-2.6A1.5 1.5 0 0 0 10.5 16ZM23 17.5a5.5 5.5 0 1 1-11 0 5.5 5.5 0 0 1 11 0Zm-2.146-2.354a.5.5 0 0 0-.708 0L16.5 18.793l-1.646-1.647a.5.5 0 0 0-.708.708l2 2a.5.5 0 0 0 .708 0l4-4a.5.5 0 0 0 0-.708Z"/></svg>
